app/dist/common/images/najran-cement-co.svg

<svg height="18" viewBox="0 0 18 18" width="18" xmlns="http://www.w3.org/2000/svg"><path d="m0 0h18v18h-18z" fill="#f0f3fa"/><path d="m6.04 7.56 6.44 5.44h1.52v-7.05l-.92-.95h-2.08l1 .95v4.18l-6.72-5.13h-2.28l1.04.87v7.13h2z" fill="#1c3765"/></svg>

<!-- by TradingView --><svg width="18" height="18" viewBox="0 0 18 18" xmlns="http://www.w3.org/2000/svg"><path fill="#F0F3FA" d="M0 0h18v18H0z"/><path d="M6.04 7.56 12.48 13H14V5.95L13.08 5H11l1 .95v4.18L5.28 5H3l1.04.87V13h2V7.56Z" fill="#1C3765"/></svg>
